icons/svg/poi_colored/power_portal.svg

<svg xmlns:ns0="http://sodipodi.sourceforge.net/DTD/sodipodi-0.dtd" xmlns:ns1="http://www.inkscape.org/namespaces/inkscape" xmlns:rdf="http://www.w3.org/1999/02/22-rdf-syntax-ns#" width="48" height="48" viewBox="0 0 48 48" version="1.1" id="svg30" style="fill:none" ns0:docname="power_portal.svg" ns1:version="0.92.5 (2060ec1f9f, 2020-04-08)" xmlns="http://www.w3.org/2000/svg">
  <metadata id="metadata16">
    <RDF>
      <Work rdf:about="">
        <format>image/svg+xml</format>
        <type rdf:resource="http://purl.org/dc/dcmitype/StillImage" />
        <title />
      </Work>
    </RDF>
  </metadata>
  <defs id="defs14">
    <clipPath id="clip0">
      <path style="fill:#ffffff" ns1:connector-curvature="0" d="M 0,0 H 580 V 580 H 0 Z" id="path10" />
    </clipPath>
  </defs>
  <namedview pagecolor="#ffffff" bordercolor="#666666" borderopacity="1" objecttolerance="10" gridtolerance="10" guidetolerance="10" ns1:pageopacity="0" ns1:pageshadow="2" ns1:window-width="1920" ns1:window-height="1014" id="namedview12" showgrid="false" ns1:zoom="13.906433" ns1:cx="20.399582" ns1:cy="26.969382" ns1:window-x="1920" ns1:window-y="0" ns1:window-maximized="1" ns1:current-layer="svg30" />
  <path style="color:#000000;font-style:normal;font-variant:normal;font-weight:normal;font-stretch:normal;font-size:medium;line-height:normal;font-family:sans-serif;font-variant-ligatures:normal;font-variant-position:normal;font-variant-caps:normal;font-variant-numeric:normal;font-variant-alternates:normal;font-feature-settings:normal;text-indent:0;text-align:start;text-decoration:none;text-decoration-line:none;text-decoration-style:solid;text-decoration-color:#000000;letter-spacing:normal;word-spacing:normal;text-transform:none;writing-mode:lr-tb;direction:ltr;text-orientation:mixed;dominant-baseline:auto;baseline-shift:baseline;text-anchor:start;white-space:normal;shape-padding:0;clip-rule:nonzero;display:inline;overflow:visible;visibility:visible;opacity:1;isolation:auto;mix-blend-mode:normal;color-interpolation:sRGB;color-interpolation-filters:linearRGB;solid-color:#000000;solid-opacity:1;vector-effect:none;fill:#ffffff;fill-opacity:0.99810249;fill-rule:evenodd;stroke:none;stroke-width:1;stroke-linecap:butt;stroke-linejoin:miter;stroke-miterlimit:4;stroke-dasharray:none;stroke-dashoffset:0;stroke-opacity:1;color-rendering:auto;image-rendering:auto;shape-rendering:auto;text-rendering:auto;enable-background:accumulate;font-variant-east_asian:normal" d="M 11.011719 4.8847656 L 5.0117188 42.84375 A 1.0005567 1.0005567 0 1 0 6.9882812 43.15625 L 8.1191406 36 L 15.871094 36 L 17.011719 43.236328 A 1.0005565 1.0005565 0 0 0 18.988281 42.923828 L 13.794922 10 L 18 10 L 18 13.029297 A 1.0001 1.0001 0 1 0 20 13.029297 L 20 10 L 28 10 L 28 12.990234 A 1.0001 1.0001 0 1 0 30 12.990234 L 30 10 L 34.203125 10 L 29.011719 42.84375 A 1.0005565 1.0005565 0 0 0 30.988281 43.15625 L 32.119141 36 L 39.871094 36 L 41.011719 43.236328 A 1.0005565 1.0005565 0 0 0 42.988281 42.923828 L 36.988281 4.8847656 L 35.011719 4.8847656 L 34.519531 8 L 13.480469 8 L 12.988281 4.8847656 L 11.011719 4.8847656 z M 11.998047 11.455078 L 13.990234 24.080078 L 10.001953 24.080078 L 11.998047 11.455078 z M 35.998047 11.455078 L 37.957031 23.869141 L 34.037109 23.869141 L 35.998047 11.455078 z M 33.720703 25.869141 L 38.271484 25.869141 L 39.554688 34 L 32.435547 34 L 33.720703 25.869141 z M 9.6875 26.080078 L 14.304688 26.080078 L 15.554688 34 L 8.4355469 34 L 9.6875 26.080078 z " id="path818" />
</svg>

<svg width="48" height="48" fill="none" version="1.1" viewBox="0 0 48 48" xmlns="http://www.w3.org/2000/svg">
 <namedview bordercolor="#666666" borderopacity="1" gridtolerance="10" guidetolerance="10" objecttolerance="10" pagecolor="#ffffff" showgrid="false"/>
 <path d="m11.012 4.8848-6 37.959a1.0006 1.0006 0 1 0 1.9766 0.3125l1.1309-7.1562h7.752l1.1406 7.2363a1.0006 1.0006 0 0 0 1.9766-0.3125l-5.1934-32.924h4.2051v3.0293a1.0001 1.0001 0 1 0 2 0v-3.0293h8v2.9902a1.0001 1.0001 0 1 0 2 0v-2.9902h4.2031l-5.1914 32.844a1.0006 1.0006 0 0 0 1.9766 0.3125l1.1309-7.1562h7.752l1.1406 7.2363a1.0006 1.0006 0 0 0 1.9766-0.3125l-6-38.039h-1.9766l-0.49219 3.1152h-21.039l-0.49219-3.1152h-1.9766zm0.98633 6.5703 1.9922 12.625h-3.9883l1.9961-12.625zm24 0 1.959 12.414h-3.9199l1.9609-12.414zm-2.2773 14.414h4.5508l1.2832 8.1309h-7.1191l1.2852-8.1309zm-24.033 0.21094h4.6172l1.25 7.9199h-7.1191l1.252-7.9199z" color="#000000" color-rendering="auto" dominant-baseline="auto" fill="#ffffff" fill-opacity=".9981" fill-rule="evenodd" image-rendering="auto" shape-rendering="auto" solid-color="#000000" style="font-feature-settings:normal;font-variant-alternates:normal;font-variant-caps:normal;font-variant-east_asian:normal;font-variant-ligatures:normal;font-variant-numeric:normal;font-variant-position:normal;isolation:auto;mix-blend-mode:normal;shape-padding:0;text-decoration-color:#000000;text-decoration-line:none;text-decoration-style:solid;text-indent:0;text-orientation:mixed;text-transform:none;white-space:normal"/>
</svg>
